src/components/atoms/Icon/icons/instagram-large.svg

<?xml version="1.0" encoding="UTF-8"?>
<svg width="36px" height="36px" viewBox="0 0 36 36" version="1.1" xmlns="http://www.w3.org/2000/svg" xmlns:xlink="http://www.w3.org/1999/xlink">
    <!-- Generator: Sketch 53.2 (72643) - https://sketchapp.com -->
    <title>instagram</title>
    <desc>Created with Sketch.</desc>
    <defs>
        <polygon id="path-1" points="0 0.00757142857 23.9924286 0.00757142857 23.9924286 23.9971429 0 23.9971429"></polygon>
    </defs>
    <g id="instagram" stroke="none" stroke-width="1" fill="none" fill-rule="evenodd">
        <g id="Group-Copy" transform="translate(6.000000, 6.000000)">
            <g id="Group-3">
                <mask id="mask-2" fill="currentColor">
                    <use xlink:href="#path-1"></use>
                </mask>
                <g id="Clip-2"></g>
                <path d="M11.9962381,0.00757142857 C8.7382381,0.00757142857 8.32971429,0.0213809524 7.05019048,0.0797619048 C5.77333333,0.138 4.90128571,0.340809524 4.1382381,0.637380952 C3.34938095,0.943904762 2.68038095,1.35409524 2.01342857,2.021 C1.34652381,2.68795238 0.936333333,3.35695238 0.629809524,4.14580952 C0.333238095,4.90885714 0.130428571,5.78090476 0.0721904762,7.0577619 C0.0138095238,8.33728571 0,8.74580952 0,12.0038095 C0,15.2617619 0.0138095238,15.6702857 0.0721904762,16.9498095 C0.130428571,18.2266667 0.333238095,19.0987143 0.629809524,19.8617619 C0.936333333,20.650619 1.34652381,21.319619 2.01342857,21.9865714 C2.68038095,22.6534762 3.34938095,23.0636667 4.1382381,23.3702381 C4.90128571,23.6667619 5.77333333,23.8695714 7.05019048,23.9278095 C8.32971429,23.9861905 8.7382381,24 11.9962381,24 C15.2541905,24 15.6627143,23.9861905 16.9422381,23.9278095 C18.2190952,23.8695714 19.0911429,23.6667619 19.8541905,23.3702381 C20.6430476,23.0636667 21.3120476,22.6534762 21.979,21.9865714 C22.6459048,21.319619 23.0560952,20.650619 23.3626667,19.8617619 C23.6591905,19.0987143 23.862,18.2266667 23.9202381,16.9498095 C23.978619,15.6702857 23.9924286,15.2617619 23.9924286,12.0038095 C23.9924286,8.74580952 23.978619,8.33728571 23.9202381,7.0577619 C23.862,5.78090476 23.6591905,4.90885714 23.3626667,4.14580952 C23.0560952,3.35695238 22.6459048,2.68795238 21.979,2.021 C21.3120476,1.35409524 20.6430476,0.943904762 19.8541905,0.637380952 C19.0911429,0.340809524 18.2190952,0.138 16.9422381,0.0797619048 C15.6627143,0.0213809524 15.2541905,0.00757142857 11.9962381,0.00757142857 Z M11.9962381,2.16904762 C15.1993333,2.16904762 15.5787619,2.18128571 16.8437143,2.239 C18.0133333,2.29233333 18.6485238,2.4877619 19.0712381,2.65204762 C19.6311905,2.86966667 20.0308095,3.12961905 20.4505714,3.54942857 C20.870381,3.96919048 21.1303333,4.36880952 21.3479524,4.9287619 C21.5122381,5.35147619 21.7076667,5.98666667 21.761,7.15628571 C21.8187143,8.4212381 21.8309524,8.80066667 21.8309524,12.0038095 C21.8309524,15.2069048 21.8187143,15.5863333 21.761,16.8512857 C21.7076667,18.0209048 21.5122381,18.6560952 21.3479524,19.0788095 C21.1303333,19.6387619 20.870381,20.038381 20.4505714,20.4581429 C20.0308095,20.8779524 19.6311905,21.1379048 19.0712381,21.3555238 C18.6485238,21.5198095 18.0133333,21.7152381 16.8437143,21.7685714 C15.5789524,21.8262857 15.1995714,21.8385238 11.9962381,21.8385238 C8.79285714,21.8385238 8.41352381,21.8262857 7.14871429,21.7685714 C5.97909524,21.7152381 5.34390476,21.5198095 4.92119048,21.3555238 C4.3612381,21.1379048 3.96161905,20.8779524 3.54185714,20.4581429 C3.12209524,20.038381 2.86209524,19.6387619 2.64447619,19.0788095 C2.48019048,18.6560952 2.2847619,18.0209048 2.23142857,16.8512857 C2.17371429,15.5863333 2.16147619,15.2069048 2.16147619,12.0038095 C2.16147619,8.80066667 2.17371429,8.4212381 2.23142857,7.15628571 C2.2847619,5.98666667 2.48019048,5.35147619 2.64447619,4.9287619 C2.86209524,4.36880952 3.12204762,3.96919048 3.54185714,3.54942857 C3.96161905,3.12961905 4.3612381,2.86966667 4.92119048,2.65204762 C5.34390476,2.4877619 5.97909524,2.29233333 7.14871429,2.239 C8.41366667,2.18128571 8.79309524,2.16904762 11.9962381,2.16904762 L11.9962381,2.16904762 Z" id="Fill-1" fill="currentColor" mask="url(#mask-2)"></path>
            </g>
            <path d="M11.9962381,16.0025238 C9.7877619,16.0025238 7.99747619,14.2122381 7.99747619,12.0038095 C7.99747619,9.79533333 9.7877619,8.00504762 11.9962381,8.00504762 C14.2046667,8.00504762 15.9949524,9.79533333 15.9949524,12.0038095 C15.9949524,14.2122381 14.2046667,16.0025238 11.9962381,16.0025238 Z M11.9962381,5.84357143 C8.594,5.84357143 5.836,8.60157143 5.836,12.0038095 C5.836,15.406 8.594,18.164 11.9962381,18.164 C15.3984286,18.164 18.1564286,15.406 18.1564286,12.0038095 C18.1564286,8.60157143 15.3984286,5.84357143 11.9962381,5.84357143 L11.9962381,5.84357143 Z" id="Fill-4" fill="currentColor"></path>
            <path d="M19.839381,5.60019048 C19.839381,6.3952381 19.1948571,7.03971429 18.3998095,7.03971429 C17.6048095,7.03971429 16.9602857,6.3952381 16.9602857,5.60019048 C16.9602857,4.80514286 17.6048095,4.16061905 18.3998095,4.16061905 C19.1948571,4.16061905 19.839381,4.80514286 19.839381,5.60019048" id="Fill-5" fill="currentColor"></path>
        </g>
    </g>
</svg>

<svg width="36" height="36" xmlns="http://www.w3.org/2000/svg" xmlns:xlink="http://www.w3.org/1999/xlink"><defs><path id="instagram-large-a" d="M0 .008h23.992v23.99H0z"/></defs><g fill="currentColor" fill-rule="evenodd"><g transform="translate(6 6)"><mask id="instagram-large-b"><use xlink:href="#instagram-large-a"/></mask><path d="M11.996.008C8.738.008 8.33.02 7.05.08 5.773.138 4.901.34 4.138.637a5.88 5.88 0 0 0-2.125 1.384A5.88 5.88 0 0 0 .63 4.146C.333 4.909.13 5.78.072 7.058.014 8.338 0 8.746 0 12.004s.014 3.666.072 4.946c.058 1.277.261 2.149.558 2.912a5.88 5.88 0 0 0 1.383 2.125 5.88 5.88 0 0 0 2.125 1.383c.763.297 1.635.5 2.912.558 1.28.058 1.688.072 4.946.072s3.667-.014 4.946-.072c1.277-.058 2.15-.261 2.912-.558a5.88 5.88 0 0 0 2.125-1.383 5.88 5.88 0 0 0 1.384-2.125c.296-.763.499-1.635.557-2.912.059-1.28.072-1.688.072-4.946s-.013-3.667-.072-4.946c-.058-1.277-.26-2.15-.557-2.912a5.88 5.88 0 0 0-1.384-2.125A5.88 5.88 0 0 0 19.854.637C19.091.341 18.22.138 16.942.08c-1.28-.06-1.688-.072-4.946-.072zm0 2.161c3.203 0 3.583.012 4.848.07 1.17.053 1.805.249 2.227.413.56.218.96.478 1.38.897.42.42.68.82.897 1.38.164.422.36 1.058.413 2.227.058 1.265.07 1.645.07 4.848s-.012 3.582-.07 4.847c-.053 1.17-.249 1.805-.413 2.228-.218.56-.478.96-.897 1.38-.42.419-.82.679-1.38.897-.422.164-1.058.36-2.227.413-1.265.057-1.644.07-4.848.07-3.203 0-3.582-.013-4.847-.07-1.17-.054-1.805-.25-2.228-.413a3.716 3.716 0 0 1-1.38-.898 3.734 3.734 0 0 1-.897-1.38c-.164-.422-.36-1.057-.413-2.227-.057-1.265-.07-1.644-.07-4.847 0-3.203.013-3.583.07-4.848.054-1.17.25-1.805.413-2.227.218-.56.478-.96.898-1.38.42-.42.82-.68 1.38-.897.422-.164 1.057-.36 2.227-.413 1.265-.058 1.644-.07 4.847-.07z" mask="url(#instagram-large-b)"/></g><path d="M17.996 22.003a3.999 3.999 0 1 1 0-7.998 3.999 3.999 0 0 1 0 7.998zm0-10.16a6.16 6.16 0 1 0 0 12.321 6.16 6.16 0 0 0 0-12.32zm7.844-.243a1.44 1.44 0 1 1-2.88 0 1.44 1.44 0 0 1 2.88 0"/></g></svg>
